src/qt/ktv/res/img/img-empty-masternode.svg

<svg xmlns="http://www.w3.org/2000/svg" id="ic_empty_masternode" width="100" height="100" viewBox="0 0 100 100">
    <defs>
        <style type="text/css">
            .cls-1{fill:#d6d6d6}.cls-2{fill:#666}.cls-3{fill:none}
        </style>
    </defs>
    <g id="Group_9022" data-name="Group 9022">
        <g id="Group_9020" data-name="Group 9020">
            <circle id="Ellipse_615" cx="8.4" cy="8.4" r="8.4" class="cls-1" data-name="Ellipse 615" transform="translate(43.6 8)"/>
            <circle id="Ellipse_616" cx="8.4" cy="8.4" r="8.4" class="cls-1" data-name="Ellipse 616" transform="translate(77.2 71)"/>
            <circle id="Ellipse_617" cx="8.4" cy="8.4" r="8.4" class="cls-1" data-name="Ellipse 617" transform="translate(10 71)"/>
            <g id="Group_9019" data-name="Group 9019">
                <path id="Path_18976" d="M39.2 53.154V71h-8V36.346l20.8 16.9 20.8-16.9V71h-8V53.154L52 63.555" class="cls-1" data-name="Path 18976"/>
            </g>
        </g>
        <g id="Group_9021" data-name="Group 9021">
            <path id="Path_18977" d="M30.2 34.245V72h10V55.255l3.881 3.154 1.261-1.553-7.143-5.8V70h-6V38.447L52 54.534l19.8-16.087V52h2V34.245L52 51.958z" class="cls-2" data-name="Path 18977"/>
            <path id="Path_18978" d="M71.8 70h-6V51.053L52 62.267l-3.7-3.01-1.264 1.553L52 64.843l11.8-9.587V72h10v-8h-2z" class="cls-2" data-name="Path 18978"/>
            <path id="Rectangle_4673" d="M0 0h2v4H0z" class="cls-2" data-name="Rectangle 4673" transform="translate(71.8 56)"/>
            <path id="Path_18979" d="M87.356 70.17A38.409 38.409 0 0 0 90.8 54.2a39.056 39.056 0 0 0-29.408-37.645c0-.052.008-.1.008-.155a9.4 9.4 0 0 0-18.8 0c0 .052.007.1.008.154A38.787 38.787 0 0 0 16.645 70.17a9.4 9.4 0 1 0 10.122 13.492 38.761 38.761 0 0 0 50.466 0A9.395 9.395 0 1 0 87.356 70.17zM52 9a7.4 7.4 0 1 1-7.4 7.4A7.409 7.409 0 0 1 52 9zM18.4 86.8a7.4 7.4 0 1 1 7.4-7.4 7.409 7.409 0 0 1-7.4 7.4zM52 91a36.732 36.732 0 0 1-24.488-9.332 9.352 9.352 0 0 0-8.735-11.649 36.794 36.794 0 0 1 24.081-51.467 9.389 9.389 0 0 0 18.284 0A37.047 37.047 0 0 1 88.8 54.2a36.419 36.419 0 0 1-3.577 15.819 9.352 9.352 0 0 0-8.735 11.649A36.734 36.734 0 0 1 52 91zm33.6-4.2a7.4 7.4 0 1 1 7.4-7.4 7.409 7.409 0 0 1-7.4 7.4z" class="cls-2" data-name="Path 18979"/>
        </g>
    </g>
    <path id="Rectangle_4674" d="M0 0h100v100H0z" class="cls-3" data-name="Rectangle 4674"/>
</svg>

<?xml version="1.0" encoding="UTF-8"?>
<svg id="Capa_38" data-name="Capa 38" xmlns="http://www.w3.org/2000/svg" viewBox="0 0 100 100">
  <defs>
    <style>
      .cls-1 {
        fill: #f6c02c;
      }

      .cls-2 {
        fill: #ffe092;
      }
    </style>
  </defs>
  <g id="Group_9022" data-name="Group 9022">
    <g id="Group_9020" data-name="Group 9020">
      <circle id="Ellipse_615" data-name="Ellipse 615" class="cls-2" cx="52" cy="16.4" r="8.4"/>
      <circle id="Ellipse_616" data-name="Ellipse 616" class="cls-2" cx="85.6" cy="79.4" r="8.4"/>
      <circle id="Ellipse_617" data-name="Ellipse 617" class="cls-2" cx="18.4" cy="79.4" r="8.4"/>
      <g id="Group_9019" data-name="Group 9019">
        <path id="Path_18976" data-name="Path 18976" class="cls-2" d="m39.2,53.15v17.85h-8v-34.65l20.8,16.9,20.8-16.9v34.65h-8v-17.85l-12.8,10.4"/>
      </g>
    </g>
    <g id="Group_9021" data-name="Group 9021">
      <path id="Path_18977" data-name="Path 18977" class="cls-1" d="m30.2,34.24v37.76h10v-16.74l3.88,3.15,1.26-1.55-7.14-5.8v18.94h-6v-31.55l19.8,16.09,19.8-16.09v13.55h2v-17.76l-21.8,17.71-21.8-17.71Z"/>
      <path id="Path_18978" data-name="Path 18978" class="cls-1" d="m71.8,70h-6v-18.95l-13.8,11.21-3.7-3.01-1.26,1.55,4.96,4.03,11.8-9.59v16.74h10v-8h-2v6Z"/>
      <path id="Rectangle_4673" data-name="Rectangle 4673" class="cls-1" d="m71.8,56h2v4h-2v-4Z"/>
      <path id="Path_18979" data-name="Path 18979" class="cls-1" d="m87.36,70.17c2.28-5.01,3.45-10.46,3.44-15.97-.09-17.78-12.18-33.25-29.41-37.65,0-.05,0-.1,0-.16,0-5.19-4.21-9.4-9.4-9.4-5.19,0-9.4,4.21-9.4,9.4,0,.05,0,.1,0,.15-20.79,5.18-33.44,26.23-28.26,47.02.56,2.26,1.33,4.47,2.29,6.6-5.1.96-8.46,5.88-7.5,10.98.96,5.1,5.88,8.46,10.98,7.5,2.87-.54,5.32-2.38,6.64-4.98,14.52,12.45,35.95,12.45,50.47,0,2.35,4.62,8.01,6.47,12.63,4.11,4.62-2.35,6.47-8.01,4.11-12.63-1.32-2.59-3.77-4.43-6.62-4.97ZM52,9c4.09,0,7.4,3.31,7.4,7.4s-3.31,7.4-7.4,7.4-7.4-3.31-7.4-7.4c0-4.08,3.32-7.4,7.4-7.4ZM18.4,86.8c-4.09,0-7.4-3.31-7.4-7.4s3.31-7.4,7.4-7.4,7.4,3.31,7.4,7.4c0,4.08-3.32,7.4-7.4,7.4Zm33.6,4.2c-9.03,0-17.75-3.32-24.49-9.33,1.27-5.01-1.76-10.1-6.76-11.37-.65-.16-1.31-.26-1.97-.28-8.74-18.35-.95-40.3,17.39-49.04,2.15-1.02,4.39-1.83,6.69-2.42,1.18,5.05,6.23,8.18,11.28,7,3.48-.81,6.19-3.53,7-7,16.23,4.25,27.57,18.87,27.66,35.65.01,5.47-1.21,10.88-3.58,15.82-5.16.18-9.2,4.51-9.02,9.68.02.67.12,1.33.28,1.97-6.74,6.02-15.46,9.34-24.49,9.33Zm33.6-4.2c-4.09,0-7.4-3.31-7.4-7.4s3.31-7.4,7.4-7.4,7.4,3.31,7.4,7.4c0,4.08-3.32,7.4-7.4,7.4Z"/>
    </g>
  </g>
</svg>
